packages/Snappmarket/src/TrashIcon/index.svg

<svg
  xmlns="http://www.w3.org/2000/svg"
  width="32pt"
  height="40pt"
  viewBox="0 0 32 40"
  version="1.1"
  id="TrashIcon"
>
  <g>
    <path d="M 22.234375 14.792969 C 21.707031 14.792969 21.277344 15.222656 21.277344 15.753906 L 21.277344 33.835938 C 21.277344 34.363281 21.707031 34.792969 22.234375 34.792969 C 22.761719 34.792969 23.191406 34.363281 23.191406 33.835938 L 23.191406 15.753906 C 23.191406 15.222656 22.761719 14.792969 22.234375 14.792969 Z M 22.234375 14.792969 "/>
    <path d="M 10.945312 14.792969 C 10.417969 14.792969 9.988281 15.222656 9.988281 15.753906 L 9.988281 33.835938 C 9.988281 34.363281 10.417969 34.792969 10.945312 34.792969 C 11.476562 34.792969 11.902344 34.363281 11.902344 33.835938 L 11.902344 15.753906 C 11.902344 15.222656 11.476562 14.792969 10.945312 14.792969 Z M 10.945312 14.792969 "/>
    <path d="M 2.71875 12.164062 L 2.71875 35.738281 C 2.703125 37.085938 3.203125 38.390625 4.121094 39.378906 C 5.007812 40.320312 6.246094 40.855469 7.539062 40.855469 L 25.640625 40.855469 C 26.933594 40.855469 28.171875 40.320312 29.058594 39.378906 C 29.972656 38.390625 30.476562 37.085938 30.460938 35.738281 L 30.460938 12.164062 C 32.257812 11.707031 33.429688 9.984375 33.191406 8.144531 C 32.949219 6.308594 31.375 4.941406 29.523438 4.960938 L 24.625 4.960938 L 24.625 3.78125 C 24.628906 2.777344 24.230469 1.8125 23.519531 1.101562 C 22.808594 0.390625 21.84375 -0.00390625 20.835938 0.00390625 L 12.339844 0.00390625 C 11.335938 -0.0078125 10.363281 0.386719 9.648438 1.097656 C 8.9375 1.808594 8.535156 2.773438 8.542969 3.78125 L 8.542969 4.976562 L 3.652344 4.976562 C 1.800781 4.953125 0.226562 6.324219 -0.0117188 8.160156 C -0.253906 9.996094 0.917969 11.722656 2.714844 12.175781 Z M 25.640625 38.9375 L 7.539062 38.9375 C 6.726562 38.90625 5.960938 38.550781 5.414062 37.949219 C 4.863281 37.347656 4.582031 36.550781 4.628906 35.738281 L 4.628906 12.246094 L 28.542969 12.246094 L 28.542969 35.738281 C 28.585938 36.550781 28.304688 37.347656 27.757812 37.949219 C 27.210938 38.550781 26.445312 38.90625 25.632812 38.9375 Z M 10.464844 3.78125 C 10.460938 3.285156 10.65625 2.804688 11.007812 2.453125 C 11.359375 2.101562 11.835938 1.90625 12.332031 1.914062 L 20.835938 1.914062 C 21.335938 1.90625 21.8125 2.101562 22.164062 2.453125 C 22.515625 2.804688 22.710938 3.285156 22.703125 3.78125 L 22.703125 4.976562 L 10.464844 4.976562 Z M 3.652344 6.890625 L 29.519531 6.890625 C 30.472656 6.890625 31.242188 7.660156 31.242188 8.613281 C 31.242188 9.566406 30.472656 10.335938 29.519531 10.335938 L 3.652344 10.335938 C 2.703125 10.335938 1.929688 9.566406 1.929688 8.613281 C 1.929688 7.660156 2.703125 6.890625 3.652344 6.890625 Z M 3.652344 6.890625 "/>
    <path d="M 16.589844 14.792969 C 16.0625 14.792969 15.632812 15.222656 15.632812 15.753906 L 15.632812 33.835938 C 15.632812 34.363281 16.0625 34.792969 16.589844 34.792969 C 17.117188 34.792969 17.546875 34.363281 17.546875 33.835938 L 17.546875 15.753906 C 17.546875 15.222656 17.117188 14.792969 16.589844 14.792969 Z M 16.589844 14.792969 "/>
  </g>
</svg>

<svg xmlns="http://www.w3.org/2000/svg" viewBox="0 0 32 40">
  <path d="M22.234 14.793a.96.96 0 00-.957.96v18.083c0 .527.43.957.957.957.528 0 .957-.43.957-.957V15.754a.96.96 0 00-.957-.961zm0 0M10.945 14.793a.96.96 0 00-.957.96v18.083a.956.956 0 101.914 0V15.754a.957.957 0 00-.957-.961zm0 0"/>
  <path d="M2.719 12.164v23.574a5.26 5.26 0 001.402 3.64 4.699 4.699 0 003.418 1.477h18.102a4.699 4.699 0 003.418-1.476 5.277 5.277 0 001.402-3.64V12.163a3.66 3.66 0 002.73-4.02 3.662 3.662 0 00-3.668-3.183h-4.898V3.78a3.77 3.77 0 00-1.105-2.68A3.75 3.75 0 0020.836.005H12.34A3.757 3.757 0 008.543 3.78v1.196h-4.89A3.652 3.652 0 00-.013 8.16a3.65 3.65 0 002.727 4.016zM25.64 38.937H7.539a3.028 3.028 0 01-2.91-3.199V12.246h23.914v23.492a3.028 3.028 0 01-2.91 3.2zM10.465 3.782a1.86 1.86 0 01.543-1.328 1.832 1.832 0 011.324-.539h8.504a1.84 1.84 0 011.867 1.867v1.196H10.465zm-6.813 3.11H29.52c.953 0 1.722.77 1.722 1.722a1.72 1.72 0 01-1.722 1.723H3.652a1.723 1.723 0 010-3.445zm0 0"/>
  <path d="M16.59 14.793a.96.96 0 00-.957.96v18.083c0 .527.43.957.957.957.527 0 .957-.43.957-.957V15.754a.96.96 0 00-.957-.961zm0 0"/>
</svg>
